images/logo.svg

<svg width="124" height="42" viewBox="0 0 124 42" fill="none" xmlns="http://www.w3.org/2000/svg">
<path fill-rule="evenodd" clip-rule="evenodd" d="M38.0237 32.7814L27.6094 37.0057L48.2858 40.2335L24.5886 0L38.0237 32.7814ZM22.1346 14.1391L31.0599 20.9013L23.5627 1.6686L0 41.9783L22.1346 14.1391ZM14.9192 25.995L13.4301 36.9816L49 41.9237L1.74017 42L14.9192 25.995Z" fill="black"/>
<path fill-rule="evenodd" clip-rule="evenodd" d="M38.0237 32.7814L27.6094 37.0057L48.2858 40.2335L24.5886 0L38.0237 32.7814ZM22.1346 14.1391L31.0599 20.9013L23.5627 1.6686L0 41.9783L22.1346 14.1391ZM14.9192 25.995L13.4301 36.9816L49 41.9237L1.74017 42L14.9192 25.995Z" fill="url(#paint0_linear_2639_15322)"/>
<path d="M64.5186 27C63.1053 27 62.0719 26.6867 61.4186 26.06C60.7786 25.42 60.4586 24.4067 60.4586 23.02V19.2C60.4586 17.84 60.7786 16.84 61.4186 16.2C62.0586 15.56 63.0919 15.24 64.5186 15.24H70.3586C71.7586 15.24 72.7786 15.56 73.4186 16.2C74.0719 16.84 74.3986 17.84 74.3986 19.2V23.02C74.3986 24.4067 74.0719 25.42 73.4186 26.06C72.7653 26.6867 71.7453 27 70.3586 27H64.5186ZM65.8986 24.28H68.9986C70.0386 24.28 70.5586 23.8067 70.5586 22.86V19.36C70.5586 18.4267 70.0386 17.96 68.9986 17.96H65.8986C65.3653 17.96 64.9653 18.0667 64.6986 18.28C64.4319 18.4933 64.2986 18.8533 64.2986 19.36V22.86C64.2986 23.3533 64.4319 23.7133 64.6986 23.94C64.9653 24.1667 65.3653 24.28 65.8986 24.28ZM77.5969 27V16.84L77.3969 15.24H81.0769L86.7169 20.96L87.4969 21.84H87.7169V15.24H91.5569V27H88.2169L82.4169 21.22L81.6369 20.28H81.4369V27H77.5969ZM99.0002 27V22.14L93.1602 15.24H97.9802L99.9602 17.98L100.88 19.44H101.08L102 17.98L103.94 15.24H108.76L107.98 16.44L102.86 22.22V27H99.0002ZM108.766 27L109.526 25.8L113.766 21.12L108.766 15.24H113.786L116.246 18.86H116.466L118.926 15.24H123.946L123.166 16.42L118.946 21.12L123.946 27H118.926L116.466 23.36H116.246L113.786 27H108.766Z" fill="white"/>
<defs>
<linearGradient id="paint0_linear_2639_15322" x1="24.5" y1="0" x2="24.5" y2="42" gradientUnits="userSpaceOnUse">
<stop stop-color="#EEAC25"/>
<stop offset="1" stop-color="#BC570D"/>
</linearGradient>
</defs>
</svg>

<svg width="124" height="42" fill="none" xmlns="http://www.w3.org/2000/svg"><path fill-rule="evenodd" clip-rule="evenodd" d="M38.024 32.781l-10.415 4.225 20.677 3.227L24.589 0l13.435 32.781zM22.134 14.14l8.926 6.762L23.563 1.67 0 41.979l22.135-27.84zM14.92 25.995l-1.49 10.987L49 41.924 1.74 42l13.18-16.005z" fill="#000"/><path fill-rule="evenodd" clip-rule="evenodd" d="M38.024 32.781l-10.415 4.225 20.677 3.227L24.589 0l13.435 32.781zM22.134 14.14l8.926 6.762L23.563 1.67 0 41.979l22.135-27.84zM14.92 25.995l-1.49 10.987L49 41.924 1.74 42l13.18-16.005z" fill="url(#paint0_linear_2639_15322)"/><path d="M64.519 27c-1.414 0-2.447-.313-3.1-.94-.64-.64-.96-1.653-.96-3.04V19.2c0-1.36.32-2.36.96-3 .64-.64 1.673-.96 3.1-.96h5.84c1.4 0 2.42.32 3.06.96.653.64.98 1.64.98 3v3.82c0 1.387-.327 2.4-.98 3.04-.654.627-1.674.94-3.06.94h-5.84zm1.38-2.72h3.1c1.04 0 1.56-.473 1.56-1.42v-3.5c0-.933-.52-1.4-1.56-1.4h-3.1c-.534 0-.934.107-1.2.32-.267.213-.4.573-.4 1.08v3.5c0 .493.133.853.4 1.08.266.227.666.34 1.2.34zM77.597 27V16.84l-.2-1.6h3.68l5.64 5.72.78.88h.22v-6.6h3.84V27h-3.34l-5.8-5.78-.78-.94h-.2V27h-3.84zM99 27v-4.86l-5.84-6.9h4.82l1.98 2.74.92 1.46h.2l.92-1.46 1.94-2.74h4.82l-.78 1.2-5.12 5.78V27H99zm9.766 0l.76-1.2 4.24-4.68-5-5.88h5.02l2.46 3.62h.22l2.46-3.62h5.02l-.78 1.18-4.22 4.7 5 5.88h-5.02l-2.46-3.64h-.22l-2.46 3.64h-5.02z" fill="#fff"/><defs><linearGradient id="paint0_linear_2639_15322" x1="24.5" y1="0" x2="24.5" y2="42" gradientUnits="userSpaceOnUse"><stop stop-color="#EEAC25"/><stop offset="1" stop-color="#BC570D"/></linearGradient></defs></svg>
